assets/web/icons/link.svg

<svg width="24" height="24" viewBox="0 0 24 24" fill="none" xmlns="http://www.w3.org/2000/svg">
<path d="M12 19.0711C11.0218 20.0492 9.84331 20.5383 8.46445 20.5383C7.08559 20.5383 5.90708 20.0492 4.92892 19.0711C3.95075 18.0929 3.46167 16.9144 3.46167 15.5355C3.46167 14.1567 3.95075 12.9781 4.92892 12L7.05024 9.87866C7.25058 9.67832 7.48629 9.57814 7.75734 9.57814C8.0284 9.57814 8.2641 9.67832 8.46445 9.87866C8.6648 10.079 8.76497 10.3147 8.76497 10.5858C8.76497 10.8568 8.6648 11.0925 8.46445 11.2929L6.34313 13.4142C5.75387 14.0035 5.45925 14.7106 5.45925 15.5355C5.45925 16.3605 5.75387 17.0676 6.34313 17.6568C6.93239 18.2461 7.63949 18.5407 8.46445 18.5407C9.28941 18.5407 9.99651 18.2461 10.5858 17.6568L12.7071 15.5355C12.9074 15.3352 13.1431 15.235 13.4142 15.235C13.6853 15.235 13.921 15.3352 14.1213 15.5355C14.3217 15.7359 14.4218 15.9716 14.4218 16.2426C14.4218 16.5137 14.3217 16.7494 14.1213 16.9497L12 19.0711ZM10.5858 14.8284C10.3854 15.0288 10.1497 15.1289 9.87866 15.1289C9.60761 15.1289 9.3719 15.0288 9.17156 14.8284C8.97121 14.6281 8.87104 14.3924 8.87104 14.1213C8.87104 13.8502 8.97121 13.6145 9.17156 13.4142L13.4142 9.17156C13.6145 8.97121 13.8502 8.87104 14.1213 8.87104C14.3924 8.87104 14.6281 8.97121 14.8284 9.17156C15.0288 9.3719 15.1289 9.60761 15.1289 9.87866C15.1289 10.1497 15.0288 10.3854 14.8284 10.5858L10.5858 14.8284ZM16.9497 14.1213C16.7494 14.3217 16.5137 14.4218 16.2426 14.4218C15.9716 14.4218 15.7359 14.3217 15.5355 14.1213C15.3352 13.921 15.235 13.6853 15.235 13.4142C15.235 13.1431 15.3352 12.9074 15.5355 12.7071L17.6568 10.5858C18.2461 9.99652 18.5407 9.28941 18.5407 8.46445C18.5407 7.63949 18.2461 6.93239 17.6568 6.34313C17.0676 5.75387 16.3605 5.45925 15.5355 5.45925C14.7106 5.45925 14.0035 5.75387 13.4142 6.34313L11.2929 8.46445C11.0925 8.6648 10.8568 8.76497 10.5858 8.76497C10.3147 8.76497 10.079 8.6648 9.87866 8.46445C9.67832 8.2641 9.57814 8.0284 9.57814 7.75734C9.57814 7.48629 9.67832 7.25058 9.87866 7.05024L12 4.92892C12.9781 3.95075 14.1567 3.46167 15.5355 3.46167C16.9144 3.46167 18.0929 3.95075 19.0711 4.92892C20.0492 5.90708 20.5383 7.08559 20.5383 8.46445C20.5383 9.84331 20.0492 11.0218 19.0711 12L16.9497 14.1213Z" fill="currentColor"/>
</svg>

<svg xmlns="http://www.w3.org/2000/svg" width="24" height="24" fill="currentColor" viewBox="0 0 24 24">
  <path d="M12 19.071c-.978.978-2.157 1.467-3.536 1.467-1.378 0-2.557-.489-3.535-1.467-.978-.978-1.467-2.157-1.467-3.535 0-1.38.489-2.558 1.467-3.536L7.05 9.879c.2-.2.436-.3.707-.3.271 0 .507.1.707.3.2.2.301.436.301.707 0 .27-.1.507-.3.707l-2.122 2.121a2.893 2.893 0 0 0-.884 2.122c0 .824.295 1.532.884 2.12.59.59 1.296.885 2.121.885s1.533-.295 2.122-.884l2.121-2.121c.2-.2.436-.3.707-.3.271 0 .507.1.707.3.2.2.3.436.3.707 0 .27-.1.506-.3.707L12 19.07Zm-1.414-4.243c-.2.2-.436.301-.707.301a.968.968 0 0 1-.707-.3.97.97 0 0 1-.301-.708c0-.27.1-.506.3-.707l4.243-4.242c.2-.2.436-.3.707-.3.271 0 .507.1.707.3.2.2.3.436.3.707 0 .27-.1.507-.3.707l-4.242 4.242Zm6.364-.707c-.2.2-.436.3-.707.3a.968.968 0 0 1-.707-.3.969.969 0 0 1-.301-.707c0-.27.1-.506.3-.707l2.122-2.121c.59-.59.884-1.297.884-2.121 0-.825-.295-1.533-.884-2.122a2.893 2.893 0 0 0-2.121-.884c-.825 0-1.532.295-2.122.884l-2.121 2.122c-.2.2-.436.3-.707.3a.968.968 0 0 1-.707-.3.97.97 0 0 1-.3-.708c0-.27.1-.506.3-.707L12 4.93c.978-.978 2.157-1.467 3.536-1.467 1.378 0 2.557.489 3.535 1.467.978.978 1.467 2.157 1.467 3.536 0 1.378-.489 2.557-1.467 3.535l-2.121 2.121Z"/>
</svg>
